SVG_Azure_Grouped/Management/Log Analytics Solution.svg

<?xml version="1.0" encoding="UTF-8" standalone="no"?>
<!-- Generated by Microsoft Visio, SVG Export Log Analytics Solution.svg Page-1 -->

<svg
   xmlns:dc="http://purl.org/dc/elements/1.1/"
   xmlns:cc="http://creativecommons.org/ns#"
   xmlns:rdf="http://www.w3.org/1999/02/22-rdf-syntax-ns#"
   xmlns:svg="http://www.w3.org/2000/svg"
   xmlns="http://www.w3.org/2000/svg"
   xmlns:sodipodi="http://sodipodi.sourceforge.net/DTD/sodipodi-0.dtd"
   xmlns:inkscape="http://www.inkscape.org/namespaces/inkscape"
   width="0.78745121in"
   height="0.78742433in"
   viewBox="0 0 56.696452 56.694661"
   xml:space="preserve"
   class="st4"
   version="1.1"
   id="svg54"
   sodipodi:docname="Log Analytics Solution.svg"
   style="font-size:12px;overflow:visible;color-interpolation-filters:sRGB;fill:none;fill-rule:evenodd;stroke-linecap:square;stroke-miterlimit:3"
   inkscape:version="0.92.5 (2060ec1f9f, 2020-04-08)"><metadata
   id="metadata58"><rdf:RDF><cc:Work
       rdf:about=""><dc:format>image/svg+xml</dc:format><dc:type
         rdf:resource="http://purl.org/dc/dcmitype/StillImage" /></cc:Work></rdf:RDF></metadata><sodipodi:namedview
   pagecolor="#ffffff"
   bordercolor="#666666"
   borderopacity="1"
   objecttolerance="10"
   gridtolerance="10"
   guidetolerance="10"
   inkscape:pageopacity="0"
   inkscape:pageshadow="2"
   inkscape:window-width="640"
   inkscape:window-height="480"
   id="namedview56"
   showgrid="false"
   inkscape:zoom="1.4192955"
   inkscape:cx="37.797256"
   inkscape:cy="37.785663"
   inkscape:window-x="0"
   inkscape:window-y="0"
   inkscape:window-maximized="0"
   inkscape:current-layer="svg54" />
	<style
   type="text/css"
   id="style2">
	<![CDATA[
		.st1 {fill:url(#grad0-6);stroke:none;stroke-linecap:butt;stroke-width:34}
		.st2 {fill:url(#grad0-10);stroke:none;stroke-linecap:butt;stroke-width:34}
		.st3 {fill:#ffffff;stroke:none;stroke-linecap:butt;stroke-width:34}
		.st4 {fill:none;fill-rule:evenodd;font-size:12px;overflow:visible;stroke-linecap:square;stroke-miterlimit:3}
	]]>
	</style>

	<defs
   id="Patterns_And_Gradients">
		<linearGradient
   id="grad0-6"
   x1="0"
   y1="93.136235"
   x2="31.434983"
   y2="93.136235"
   gradientTransform="scale(0.99888714,1.0011141)"
   gradientUnits="userSpaceOnUse">
			<stop
   offset="0"
   stop-color="#5ea0ef"
   stop-opacity="1"
   id="stop4" />
			<stop
   offset="0.18"
   stop-color="#589eed"
   stop-opacity="1"
   id="stop6" />
			<stop
   offset="0.41"
   stop-color="#4897e9"
   stop-opacity="1"
   id="stop8" />
			<stop
   offset="0.66"
   stop-color="#2e8ce1"
   stop-opacity="1"
   id="stop10" />
			<stop
   offset="0.94"
   stop-color="#0a7cd7"
   stop-opacity="1"
   id="stop12" />
			<stop
   offset="1"
   stop-color="#0078d4"
   stop-opacity="1"
   id="stop14" />
		</linearGradient>
		<linearGradient
   id="grad0-10"
   x1="-0.0010253029"
   y1="84.688505"
   x2="39.947274"
   y2="84.688505"
   gradientTransform="scale(0.9994048,1.0005956)"
   gradientUnits="userSpaceOnUse">
			<stop
   offset="0"
   stop-color="#198ab3"
   stop-opacity="1"
   id="stop17" />
			<stop
   offset="0.24"
   stop-color="#22a5cb"
   stop-opacity="1"
   id="stop19" />
			<stop
   offset="0.53"
   stop-color="#2bbfe2"
   stop-opacity="1"
   id="stop21" />
			<stop
   offset="0.79"
   stop-color="#30cff0"
   stop-opacity="1"
   id="stop23" />
			<stop
   offset="1"
   stop-color="#32d4f5"
   stop-opacity="1"
   id="stop25" />
		</linearGradient>
	</defs>
	<g
   id="g52"
   transform="translate(-34.000162,-33.999642)">
		<title
   id="title29">Page-1</title>
		<g
   id="group12321-1"
   transform="translate(34,-34.0157)">
			<title
   id="title31">Log Analytics Solution.12321</title>
			<g
   id="group12322-2">
				<title
   id="title33">Icon-manage-321</title>
				<g
   id="shape12323-3">
					<title
   id="title35">Sheet.12323</title>
					<path
   d="M 16.91,110.09 H 31.4 v 12.95 a 1.67731,1.67236 0 0 1 -1.68,1.67 H 16.91 Z M 2.01,124.54 H 14.49 V 110.09 H 0 v 12.45 a 2.01277,2.00683 -180 0 0 2.01,2 z M 0,107.82 H 14.49 V 93.24 H 1.68 A 1.67731,1.67236 -180 0 0 0,94.91 Z"
   class="st1"
   id="path37"
   inkscape:connector-curvature="0"
   style="fill:url(#grad0-6);stroke:none;stroke-width:34;stroke-linecap:butt" />
				</g>
				<g
   id="shape12324-7"
   transform="translate(16.7731,-16.7236)">
					<title
   id="title40">Sheet.12324</title>
					<path
   d="m 19.96,84.74 a 19.7587,19.7004 0 0 1 19.96,20.07 19.7587,19.7004 0 0 1 -19.96,19.9 H 0 v -20.07 a 19.7587,19.7004 0 0 1 19.96,-19.9 z"
   class="st2"
   id="path42"
   inkscape:connector-curvature="0"
   style="fill:url(#grad0-10);stroke:none;stroke-width:34;stroke-linecap:butt" />
				</g>
				<g
   id="shape12325-11"
   transform="translate(20.8418,-24.9947)">
					<title
   id="title45">Sheet.12325</title>
					<path
   d="m 28.17,102.01 a 3.35461,3.34471 -180 0 0 -3.36,3.34 3.35461,3.34471 -180 0 0 0.74,2.08 l -5.6,10 h -0.44 a 3.35461,3.34471 -180 0 0 -1.77,0.53 l -4.33,-4.41 a 3.35461,3.34471 -180 0 0 0.27,-1.31 3.44,3.4298455 -180 0 0 -6.88,0 3.35461,3.34471 -180 0 0 0.44,1.61 L 3.31,119 a 4.22681,4.21434 -180 0 0 -0.94,0 3.35461,3.34471 -180 1 0 3.36,3.34 3.35461,3.34471 -180 0 0 -0.44,-1.57 l 4.13,-5.18 a 3.35461,3.34471 -180 0 0 0.84,0 3.52234,3.51195 -180 0 0 1.2,-0.27 l 4.73,4.95 a 3.69007,3.67919 -180 0 0 0,0.6 3.355,3.3450988 -180 0 0 6.71,0 3.69007,3.67919 -180 0 0 -0.67,-2 l 5.6,-10.04 h 0.34 a 3.35461,3.34471 -180 0 0 3.35,-3.34 3.35461,3.34471 -180 0 0 -3.35,-3.48 z"
   class="st3"
   id="path47"
   inkscape:connector-curvature="0"
   style="fill:#ffffff;stroke:none;stroke-width:34;stroke-linecap:butt" />
				</g>
			</g>
		</g>
	</g>
</svg>

<?xml version="1.0" encoding="UTF-8" standalone="no"?>
<!DOCTYPE svg PUBLIC "-//W3C//DTD SVG 1.1//EN" "http://www.w3.org/Graphics/SVG/1.1/DTD/svg11.dtd">
<!-- Generated by Microsoft Visio, SVG Export Log Analytics Solution.svg Page-1 -->
<svg xmlns="http://www.w3.org/2000/svg" xmlns:xlink="http://www.w3.org/1999/xlink" xmlns:ev="http://www.w3.org/2001/xml-events"
		width="1.73189in" height="1.73208in" viewBox="0 0 124.696 124.71" xml:space="preserve" color-interpolation-filters="sRGB"
		class="st4">
	<style type="text/css">
	<![CDATA[
		.st1 {fill:url(#grad0-6);stroke:none;stroke-linecap:butt;stroke-width:34}
		.st2 {fill:url(#grad0-10);stroke:none;stroke-linecap:butt;stroke-width:34}
		.st3 {fill:#ffffff;stroke:none;stroke-linecap:butt;stroke-width:34}
		.st4 {fill:none;fill-rule:evenodd;font-size:12px;overflow:visible;stroke-linecap:square;stroke-miterlimit:3}
	]]>
	</style>

	<defs id="Patterns_And_Gradients">
		<linearGradient id="grad0-6" x1="0" y1="0" x2="1" y2="0" gradientTransform="rotate(90 0.5 0.5)">
			<stop offset="0" stop-color="#5ea0ef" stop-opacity="1"/>
			<stop offset="0.18" stop-color="#589eed" stop-opacity="1"/>
			<stop offset="0.41" stop-color="#4897e9" stop-opacity="1"/>
			<stop offset="0.66" stop-color="#2e8ce1" stop-opacity="1"/>
			<stop offset="0.94" stop-color="#0a7cd7" stop-opacity="1"/>
			<stop offset="1" stop-color="#0078d4" stop-opacity="1"/>
		</linearGradient>
		<linearGradient id="grad0-10" x1="0" y1="0" x2="1" y2="0" gradientTransform="rotate(-90 0.5 0.5)">
			<stop offset="0" stop-color="#198ab3" stop-opacity="1"/>
			<stop offset="0.24" stop-color="#22a5cb" stop-opacity="1"/>
			<stop offset="0.53" stop-color="#2bbfe2" stop-opacity="1"/>
			<stop offset="0.79" stop-color="#30cff0" stop-opacity="1"/>
			<stop offset="1" stop-color="#32d4f5" stop-opacity="1"/>
		</linearGradient>
	</defs>
	<g>
		<title>Page-1</title>
		<g id="group12039-1" transform="translate(34,-34.0157)">
			<title>Log Analytics Solution.12039</title>
			<g id="group12040-2">
				<title>Icon-manage-321</title>
				<g id="shape12041-3">
					<title>Sheet.12041</title>
					<path d="M16.91 110.09 L31.4 110.09 L31.4 123.04 A1.67731 1.67236 0 0 1 29.72 124.71 L16.91 124.71 L16.91 110.09
								 ZM2.01 124.54 L14.49 124.54 L14.49 110.09 L0 110.09 L0 122.54 A2.01277 2.00683 -180 0 0 2.01 124.54
								 ZM0 107.82 L14.49 107.82 L14.49 93.24 L1.68 93.24 A1.67731 1.67236 -180 0 0 -0 94.91 L0 107.82 Z"
							class="st1"/>
				</g>
				<g id="shape12042-7" transform="translate(16.7731,-16.7236)">
					<title>Sheet.12042</title>
					<path d="M19.96 84.74 A19.7587 19.7004 0 0 1 39.92 104.81 A19.7587 19.7004 0 0 1 19.96 124.71 L0 124.71 L0 104.64
								 A19.7587 19.7004 0 0 1 19.96 84.74 Z" class="st2"/>
				</g>
				<g id="shape12043-11" transform="translate(20.8418,-24.9947)">
					<title>Sheet.12043</title>
					<path d="M28.17 102.01 A3.35461 3.34471 -180 0 0 24.81 105.35 A3.35461 3.34471 -180 0 0 25.55 107.43 L19.95 117.43
								 L19.51 117.43 A3.35461 3.34471 -180 0 0 17.74 117.96 L13.41 113.55 A3.35461 3.34471 -180 0 0 13.68
								 112.24 A3.43848 3.42833 -180 0 0 6.8 112.24 A3.35461 3.34471 -180 0 0 7.24 113.85 L3.31 119 A4.22681
								 4.21434 -180 0 0 2.37 119 A3.35461 3.34471 -180 1 0 5.73 122.34 A3.35461 3.34471 -180 0 0 5.29 120.77
								 L9.42 115.59 A3.35461 3.34471 -180 0 0 10.26 115.59 A3.52234 3.51195 -180 0 0 11.46 115.32 L16.19
								 120.27 A3.69007 3.67919 -180 0 0 16.19 120.87 A3.35461 3.34471 -180 0 0 22.9 120.87 A3.69007 3.67919
								 -180 0 0 22.23 118.87 L27.83 108.83 L28.17 108.83 A3.35461 3.34471 -180 0 0 31.52 105.49 A3.35461
								 3.34471 -180 0 0 28.17 102.01 Z" class="st3"/>
				</g>
			</g>
		</g>
	</g>
</svg>
